X:1
T:Title
%%score { ( 1 3 ) | ( 2 4 ) }
L:1/8
Q:1/4=106
M:4/4
K:Eb
V:1 treble nm="Grand Piano"
V:3 treble 
V:2 bass 
V:4 bass 
V:1
 G2 G>G G4 | [GB]2 [GB]>[GB] [AB]4 | E2 D>E A2 G2 | [EG]4 [DF]4 | GGGF E2 G[EG] | %5
w: Benj~A.~Baur * * *|||||
 [EA]2 [EB][Ec] B4 | e2 d>c B2 G2 | [DF]4 z4 |] %8
w: |||
V:2
 [E,B,E]2 [E,B,E]>[E,B,E] [E,B,E]4 | [E,E]2 [E,E]>[E,E] [F,D]4 | %2
 [G,B,]2 [F,A,B,]>[E,G,B,] [E,CE]2 [E,B,E]2 | [B,,B,]4 [B,,B,]4 | %4
 [E,B,E][E,B,E][E,B,E][E,A,D] [E,G,]2 [E,B,E][_D,B,] | [C,A,]2 [B,,G,][A,,A,] [E,G,E]4 | %6
 [G,B,E]2 [A,CA]>[A,DA] [B,EG]2 [B,E]2 | B,2 z2 [E,G,]4 |] %8
V:3
 x8 | x8 | x8 | x8 | x8 | x8 | x8 | z2 A,2 E4 |] %8
V:4
 x8 | x8 | x8 | x8 | x8 | x8 | x8 | B,,4 z4 |] %8

